lib/svgs/testcase.svg

<?xml version="1.0" encoding="UTF-8"?>
<svg width="16px" height="16px" viewBox="0 0 16 16" version="1.1" xmlns="http://www.w3.org/2000/svg" xmlns:xlink="http://www.w3.org/1999/xlink">
    <!-- Generator: sketchtool 51.3 (57544) - http://www.bohemiancoding.com/sketch -->
    <title>test-case/testcase</title>
    <desc>Created with sketchtool.</desc>
    <defs></defs>
    <g id="Icons" stroke="none" stroke-width="1" fill="none" fill-rule="evenodd">
        <g id="Artboard" transform="translate(-209.000000, -213.000000)" fill="#000000" fill-rule="nonzero">
            <g id="test-case/testcase" transform="translate(209.000000, 213.000000)">
                <path d="M3.35597696,5.63268385 C3.00760501,5.63268385 2.72519375,5.35027258 2.72519375,5.00190063 C2.72519375,4.65352868 3.00760501,4.37111742 3.35597696,4.37111742 L10.4365185,4.37111742 C10.7848905,4.37111742 11.0673018,4.65352868 11.0673018,5.00190063 C11.0673018,5.35027258 10.7848905,5.63268385 10.4365185,5.63268385 L3.35597696,5.63268385 Z M3.62805479,8.91086421 C3.27968284,8.91086421 2.99727158,8.62845295 2.99727158,8.280081 C2.99727158,7.93170905 3.27968284,7.64929778 3.62805479,7.64929778 L6.34988436,7.64929778 C6.69825631,7.64929778 6.98066758,7.93170905 6.98066758,8.280081 C6.98066758,8.62845295 6.69825631,8.91086421 6.34988436,8.91086421 L3.62805479,8.91086421 Z M15.4236644,14.280593 L12.9076946,15.7336102 C12.1392688,16.177022 11.1784247,15.622402 11.1784247,14.735201 L11.1784247,11.829393 C11.1784247,10.9415394 12.1405213,10.3870264 12.9077194,10.8320495 L15.4234808,12.283895 C16.1921425,12.727443 16.1921425,13.837151 15.4236644,14.280593 Z M14.6296193,13.2823311 L12.4399912,12.0186954 L12.4399912,14.5468802 L14.6296193,13.2823311 Z M14.3755495,8.4756238 C14.3755495,8.82399575 14.0931382,9.10640701 13.7447662,9.10640701 C13.3963943,9.10640701 13.113983,8.82399575 13.113983,8.4756238 L13.113983,2.20774125 C13.113983,1.68878628 12.6867632,1.26156643 12.1678082,1.26156643 L2.20774125,1.26156643 C1.68878628,1.26156643 1.26156643,1.68878628 1.26156643,2.20774125 L1.26156643,12.1678082 C1.26156643,12.6867632 1.68878628,13.113983 2.20774125,13.113983 L8.68693617,13.113983 C9.03530812,13.113983 9.31771939,13.3963943 9.31771939,13.7447662 C9.31771939,14.0931382 9.03530812,14.3755495 8.68693617,14.3755495 L2.20774125,14.3755495 C0.992042381,14.3755495 0,13.3835071 0,12.1678082 L0,2.20774125 C0,0.992042381 0.992042381,0 2.20774125,0 L12.1678082,0 C13.3835071,0 14.3755495,0.992042381 14.3755495,2.20774125 L14.3755495,8.4756238 Z" id="testcase"></path>
            </g>
        </g>
    </g>
</svg>

<svg xmlns="http://www.w3.org/2000/svg" viewBox="0 0 16 16">
    <path d="M3.356 5.633a.63.63 0 0 1 0-1.262h7.08a.63.63 0 1 1 0 1.262h-7.08zm.272 3.278a.63.63 0 1 1 0-1.262H6.35a.63.63 0 0 1 0 1.262H3.628zm11.796 5.37l-2.516 1.453a1.153 1.153 0 0 1-1.73-.999V11.83c0-.887.963-1.442 1.73-.997l2.515 1.452a1.153 1.153 0 0 1 0 1.997zm-.794-.999l-2.19-1.263v2.528l2.19-1.265zm-.254-4.806a.63.63 0 0 1-1.262 0V2.208a.95.95 0 0 0-.946-.946h-9.96a.95.95 0 0 0-.946.946v9.96a.95.95 0 0 0 .946.946h6.479a.63.63 0 0 1 0 1.262h-6.48A2.212 2.212 0 0 1 0 12.168v-9.96C0 .992.992 0 2.208 0h9.96c1.216 0 2.208.992 2.208 2.208v6.268z"/>
</svg>
